!!!OTL: 205a. Traumlied vom Rosenfallen.
!!!ARE: Europa, Mitteleuropa, Deutschland, Harz, Ilsenburg
!!!SCT: E0205
!!!TXL: @@DE
!!!YEM: Copyright 1995, estate of Helmut Schaffrath.
**kern	**text
*ICvox	*
*M3/4	*
*k[b-]	*
*F:	*
!LO:TX:a:t=Mäſig langſam.	!
!LO:TX:a:t=Jlſenburg im Harʒ, 1857 gehört.	!
{4c	Jch
=1	=1
4.f	ſetʒ-
8a	-te
4f	mich
=2	=2
4.g	nie-
8f}	-der
{4g	ins
=3	=3
4.a	grü-
8cc	-ne,
8a	grü-
8f	-ne
=4	=4
2g}	Gras,
{4c	Jch
=5	=5
4.f	ſetʒ-
8a	-te
4f	mich
=6	=6
4.g	nie-
8f}	-der
{4g	ins
=7	=7
4.a	grü-
8cc	-ne,
8a	grü-
8f	-ne
=8	=8
2g}	Gras,
{8gL	und
8aJ	.
=9	=9
8b-L	lauer-
8ddJ	.
4dd	-te
8ccL	auf
8b-J	.
=10	=10
8a/L	mei-
8ccJ	.
4cc}	-nen
{4a	herʒ-
=11	=11
4g	-tau-
4cc	-ſen-
4b-	-den
=12	=12
2a}	Schatʒ.
{8gL	und
8aJ	.
=13	=13
8b-L	lauer-
8ddJ	.
4dd	-te
8ccL	auf
8b-J	.
=14	=14
8a/L	mei-
8ccJ	.
4cc}	-nen
{4a	herʒ-
=15	=15
4g	-tau-
4cc	-ſen-
4b-	-den
=16	=16
2a}	Schatʒ.
==	==
!!!AGN: erzaehlendes Volks - Lied, Todes - Ahnung; betrogene Liebe
!!!ONB: ESAC (Essen Associative Code) Database: ERK1
!!!AMT: simple triple
!!!AIN: vox
!!!EED: Helmut Schaffrath
!!!EEV: 1.0
!!!GTL: Todtensagen (Todesahnung, Geisterliebe, Grabesstimmen)
!!!URL-scan: https://rosdok.uni-rostock.de/mcrviewer/recordIdentifier/rosdok_ppn745146120/iview2/phys_0680.iview2?x=-725.337132395714&y=-117.75330866267905&scale=0.4088357090269529&rotation=0&layout=singlePageLayout
!!!ENC: Anna Maria Matuszewska
!!!EEV: 2024/06/12
*-	*-
